X: 8987
T: Cutty Sark
R: reel
M: 4/4
K: Gmajor
G2 BA G2 DB|G2 BG (dG)Bg|G2 BA G2 AB|cABG ADFA|
G2 BA G2 DF|GABc dGBg|bagf g2 Bd|(cA)BG ADFA||
d<B g2 d<B g2|g2 Bc (dB)dg|GABc dB g2|(ed)cB ADFA|
d<B g2 d<B g2|g2 Bc (dB)dg|bagf egdb|cadg ADFA||

